assets/img/Botza Logo.svg

<svg fill="none" height="57" viewBox="0 0 159 57" width="159" xmlns="http://www.w3.org/2000/svg"><path d="m36.1463 21.1348c-.1668.2859-.3336.5718-.5004.8578-2.5495 3.9315-6.9576 6.5286-11.9851 6.5286h-12.5332l-11.0797484 7.3865v6.6955 6.5764 7.3865l11.0797484-7.3865h21.3969c7.8869 0 14.2726-6.3858 14.2726-14.2726-.0476-6.6002-4.551-12.152-10.6508-13.7722z" fill="#5d71ff"/><path d="m35.6219 21.0157c.1668.0477.3336.0953.5004.143 1.1199-2.0491 1.7632-4.3842 1.7632-6.8861 0-7.88686-6.3857-14.2726-14.2726-14.2726h-16.96507c-3.66941 0-6.64783 2.97843-6.64783 6.64784v14.01046h32.4767c1.0961 0 2.1445.1192 3.1452.3574z" fill="#7dcaff"/><path d="m23.6373 28.5216c5.0276 0 9.4595-2.5972 11.9852-6.5287.1668-.2859.3574-.548.5004-.8578-.1668-.0476-.3336-.0953-.5004-.1429-1.0008-.2145-2.0492-.3574-3.1452-.3574h-32.4528859v.3097.6672.3097 5.5995.9769 6.3857.9769l11.0796859-7.3864h12.5332z" fill="#3ba2ff"/><path d="m15.3656 37.1706c1.1317 0 2.0491-.9175 2.0491-2.0492s-.9174-2.0491-2.0491-2.0491c-1.1318 0-2.0492.9174-2.0492 2.0491s.9174 2.0492 2.0492 2.0492z" fill="#fff"/><path d="m23.2288 37.1706c1.1318 0 2.0492-.9175 2.0492-2.0492s-.9174-2.0491-2.0492-2.0491c-1.1317 0-2.0491.9174-2.0491 2.0491s.9174 2.0492 2.0491 2.0492z" fill="#fff"/><path d="m31.4251 37.1706c1.1317 0 2.0492-.9175 2.0492-2.0492s-.9175-2.0491-2.0492-2.0491-2.0491.9174-2.0491 2.0491.9174 2.0492 2.0491 2.0492z" fill="#fff"/><g fill="#142a5b"><path d="m93.4273 18.4191c-.5957-.5719-1.2867-1.0246-2.073-1.3582-.8102-.3336-1.6679-.5004-2.621-.5004h-3.8601c-.9531 0-1.8109.1668-2.621.5004s-1.5011.7863-2.073 1.3582c-.5956.5718-1.0484 1.2628-1.3819 2.073-.3336.8101-.5004 1.6917-.5004 2.621v3.026c0 .9531.1668 1.8348.5004 2.6449.3335.8101.7863 1.5011 1.3819 2.073.5957.5956 1.2867 1.0484 2.073 1.3581.8101.3336 1.6679.4766 2.621.4766h3.8601c.9531 0 1.8108-.1668 2.621-.4766.8101-.3336 1.5011-.7863 2.073-1.3581.5956-.5957 1.0484-1.2867 1.3581-2.073.3336-.8101.5004-1.6918.5004-2.6449v-3.0022c0-.9531-.1668-1.8347-.5004-2.621-.3336-.8101-.7863-1.5011-1.3581-2.0968zm-1.0008 7.72c0 .5719-.0953 1.0723-.2621 1.525s-.4289.8578-.7625 1.1675c-.3336.3336-.7148.5719-1.1675.7625s-.9531.2621-1.525.2621h-3.8362c-.548 0-1.0722-.0953-1.5249-.2621s-.8578-.4289-1.1676-.7625c-.3335-.3335-.5718-.7148-.7624-1.1675-.1907-.4527-.2621-.9531-.2621-1.525v-3.0022c0-.5719.0953-1.0722.2621-1.5249.1668-.4528.4289-.8578.7624-1.1676.3336-.3336.7149-.5718 1.1676-.7625.4527-.1668.9531-.2621 1.5249-.2621h3.8601c.548 0 1.0484.0953 1.5011.2621.4527.1907.8578.4289 1.1675.7625.3336.3336.5719.7148.7625 1.1676.1906.4527.2621.9769.2621 1.5249z"/><path d="m101.145 19.6343h6.266v12.8668h2.859v-12.8668h6.267v-2.8355h-15.392z"/><path d="m136.028 17.0371c-.238-.1668-.5-.2383-.762-.2383h-12.867v2.8355h9.65l-9.412 10.484c-.191.2145-.286.4528-.334.7149-.047.2859 0 .548.12.8101.119.2621.285.4527.524.6195.238.1668.5.2383.762.2383h12.819v-2.8355h-9.626l9.388-10.484c.191-.1907.31-.4289.357-.7149.048-.2859.001-.548-.095-.8101-.119-.2621-.31-.4765-.524-.6195z"/><path d="m158.881 17.657c-.072-.1668-.167-.3336-.31-.4527-.143-.143-.286-.2383-.453-.3098s-.357-.1191-.548-.1191h-6.41c-1.119 0-2.168.1906-3.121.5718-.953.3813-1.787.9293-2.478 1.6203s-1.239 1.525-1.644 2.478c-.405.9531-.596 2.0254-.596 3.1691v7.8392h2.836v-3.86h10.007v3.86h2.836v-14.2726c0-.143-.048-.3336-.119-.5242zm-2.741 8.1251h-10.007v-1.1437c0-.7863.119-1.4773.334-2.0253.214-.548.5-1.0246.857-1.4058.334-.3813.715-.6672 1.12-.8816.405-.2145.786-.3574 1.168-.4766.357-.0953.691-.1668.977-.1906s.476-.0477.548-.0477h5.003z"/><path d="m71.1476 25.7345c-.2145-.3574-.4528-.691-.7387-.9531-.2859-.2859-.5718-.5242-.9054-.7148.3812-.5242.6433-1.0723.8101-1.6441.1668-.5719.2621-1.1199.2621-1.6203v-.548c0-.6434-.1191-1.1676-.3336-1.6203-.2382-.4289-.5242-.7863-.8578-1.0722-.3574-.2621-.7148-.4766-1.1198-.5957-.4051-.1191-.7863-.1906-1.1199-.1906h-9.531c-.2144 0-.405.0476-.5718.1191s-.3336.1668-.4528.3098c-.1191.1429-.2382.2859-.3097.4527s-.1191.3574-.1191.548v1.4058h2.8354 3.3597 4.7654c.4051 0 .5957.2145.5957.6196v.548c0 .3812-.0476.7148-.1668 1.0007-.1191.286-.2859.5481-.4765.7625-.2145.2145-.4766.3812-.7625.4766-.3097.1191-.6433.1668-1.0007.1668h-6.2666-2.8831v7.8392c0 .2144.0476.405.1191.5718s.1668.3336.3097.4527c.1192.1192.286.2383.4528.3098s.3574.1191.5718.1191h10.7938c.6434 0 1.1676-.1191 1.6203-.3336.4289-.2382.7863-.5242 1.0722-.8578.2621-.3335.4766-.7148.5957-1.1198.1191-.4051.1906-.7863.1906-1.1199v-.548c0-.5481-.0715-1.0723-.1906-1.525-.1668-.4527-.3336-.8816-.548-1.239zm-2.1445 3.2882c0 .1429-.0238.2621-.0715.3574-.0476.0953-.0953.1429-.1429.1906-.0477.0476-.1192.0476-.1907.0715-.0714 0-.1429 0-.1906 0h-6.0283-3.2882v-3.5741h7.4818c.3813 0 .7148.0476 1.0008.1667.3097.1192.548.286.7624.4766.2145.2144.3813.4765.5004.7625.1192.2859.1668.6195.1668 1.0007z"/></g></svg>

<svg width="159" height="57" viewBox="0 0 159 57" fill="none" xmlns="http://www.w3.org/2000/svg">
<path d="M36.1463 21.1348C35.9795 21.4207 35.8127 21.7066 35.6459 21.9926C33.0964 25.9241 28.6883 28.5212 23.6608 28.5212H11.1276L0.0478516 35.9077V42.6032V49.1796V56.5661L11.1276 49.1796H32.5245C40.4114 49.1796 46.7971 42.7938 46.7971 34.907C46.7495 28.3068 42.2461 22.755 36.1463 21.1348Z" fill="#5D71FF"/>
<path d="M35.6219 21.0157C35.7887 21.0634 35.9555 21.111 36.1223 21.1587C37.2422 19.1096 37.8855 16.7745 37.8855 14.2726C37.8855 6.38574 31.4998 0 23.6129 0H6.64783C2.97842 0 0 2.97843 0 6.64784V20.6583H32.4767C33.5728 20.6583 34.6212 20.7775 35.6219 21.0157Z" fill="#7DCAFF"/>
<path d="M23.6373 28.5216C28.6649 28.5216 33.0968 25.9244 35.6225 21.9929C35.7893 21.707 35.9799 21.4449 36.1229 21.1351C35.9561 21.0875 35.7893 21.0398 35.6225 20.9922C34.6217 20.7777 33.5733 20.6348 32.4773 20.6348H0.0244141V20.9445V21.6117V21.9214V27.5209V28.4978V34.8835V35.8604L11.1041 28.474H23.6373V28.5216Z" fill="#3BA2FF"/>
<path d="M15.3656 37.1706C16.4973 37.1706 17.4147 36.2531 17.4147 35.1214C17.4147 33.9897 16.4973 33.0723 15.3656 33.0723C14.2338 33.0723 13.3164 33.9897 13.3164 35.1214C13.3164 36.2531 14.2338 37.1706 15.3656 37.1706Z" fill="white"/>
<path d="M23.2288 37.1706C24.3606 37.1706 25.278 36.2531 25.278 35.1214C25.278 33.9897 24.3606 33.0723 23.2288 33.0723C22.0971 33.0723 21.1797 33.9897 21.1797 35.1214C21.1797 36.2531 22.0971 37.1706 23.2288 37.1706Z" fill="white"/>
<path d="M31.4251 37.1706C32.5568 37.1706 33.4743 36.2531 33.4743 35.1214C33.4743 33.9897 32.5568 33.0723 31.4251 33.0723C30.2934 33.0723 29.376 33.9897 29.376 35.1214C29.376 36.2531 30.2934 37.1706 31.4251 37.1706Z" fill="white"/>
<path d="M93.4273 18.4191C92.8316 17.8472 92.1406 17.3945 91.3543 17.0609C90.5441 16.7273 89.6864 16.5605 88.7333 16.5605H84.8732C83.9201 16.5605 83.0623 16.7273 82.2522 17.0609C81.4421 17.3945 80.7511 17.8472 80.1792 18.4191C79.5836 18.9909 79.1308 19.6819 78.7973 20.4921C78.4637 21.3022 78.2969 22.1838 78.2969 23.1131V26.1391C78.2969 27.0922 78.4637 27.9739 78.7973 28.784C79.1308 29.5941 79.5836 30.2851 80.1792 30.857C80.7749 31.4526 81.4659 31.9054 82.2522 32.2151C83.0623 32.5487 83.9201 32.6917 84.8732 32.6917H88.7333C89.6864 32.6917 90.5441 32.5249 91.3543 32.2151C92.1644 31.8815 92.8554 31.4288 93.4273 30.857C94.0229 30.2613 94.4757 29.5703 94.7854 28.784C95.119 27.9739 95.2858 27.0922 95.2858 26.1391V23.1369C95.2858 22.1838 95.119 21.3022 94.7854 20.5159C94.4518 19.7058 93.9991 19.0148 93.4273 18.4191ZM92.4265 26.1391C92.4265 26.711 92.3312 27.2114 92.1644 27.6641C91.9976 28.1168 91.7355 28.5219 91.4019 28.8316C91.0683 29.1652 90.6871 29.4035 90.2344 29.5941C89.7817 29.7847 89.2813 29.8562 88.7094 29.8562H84.8732C84.3252 29.8562 83.801 29.7609 83.3483 29.5941C82.8956 29.4273 82.4905 29.1652 82.1807 28.8316C81.8472 28.4981 81.6089 28.1168 81.4183 27.6641C81.2276 27.2114 81.1562 26.711 81.1562 26.1391V23.1369C81.1562 22.565 81.2515 22.0647 81.4183 21.612C81.5851 21.1592 81.8472 20.7542 82.1807 20.4444C82.5143 20.1108 82.8956 19.8726 83.3483 19.6819C83.801 19.5151 84.3014 19.4198 84.8732 19.4198H88.7333C89.2813 19.4198 89.7817 19.5151 90.2344 19.6819C90.6871 19.8726 91.0922 20.1108 91.4019 20.4444C91.7355 20.778 91.9738 21.1592 92.1644 21.612C92.355 22.0647 92.4265 22.5889 92.4265 23.1369V26.1391Z" fill="#142A5B"/>
<path d="M101.145 19.6343H107.411V32.5011H110.27V19.6343H116.537V16.7988H101.145V19.6343Z" fill="#142A5B"/>
<path d="M136.028 17.0371C135.79 16.8703 135.528 16.7988 135.266 16.7988H122.399V19.6343H132.049L122.637 30.1183C122.446 30.3328 122.351 30.5711 122.303 30.8332C122.256 31.1191 122.303 31.3812 122.423 31.6433C122.542 31.9054 122.708 32.096 122.947 32.2628C123.185 32.4296 123.447 32.5011 123.709 32.5011H136.528V29.6656H126.902L136.29 19.1816C136.481 18.9909 136.6 18.7527 136.647 18.4667C136.695 18.1808 136.648 17.9187 136.552 17.6566C136.433 17.3945 136.242 17.1801 136.028 17.0371Z" fill="#142A5B"/>
<path d="M158.881 17.657C158.809 17.4902 158.714 17.3234 158.571 17.2043C158.428 17.0613 158.285 16.966 158.118 16.8945C157.951 16.823 157.761 16.7754 157.57 16.7754H151.16C150.041 16.7754 148.992 16.966 148.039 17.3472C147.086 17.7285 146.252 18.2765 145.561 18.9675C144.87 19.6585 144.322 20.4925 143.917 21.4455C143.512 22.3986 143.321 23.4709 143.321 24.6146V32.4538H146.157V28.5938H156.164V32.4538H159V18.1812C159 18.0382 158.952 17.8476 158.881 17.657ZM156.14 25.7821H146.133V24.6384C146.133 23.8521 146.252 23.1611 146.467 22.6131C146.681 22.0651 146.967 21.5885 147.324 21.2073C147.658 20.826 148.039 20.5401 148.444 20.3257C148.849 20.1112 149.23 19.9683 149.612 19.8491C149.969 19.7538 150.303 19.6823 150.589 19.6585C150.875 19.6347 151.065 19.6108 151.137 19.6108H156.14V25.7821Z" fill="#142A5B"/>
<path d="M71.1476 25.7345C70.9331 25.3771 70.6948 25.0435 70.4089 24.7814C70.123 24.4955 69.8371 24.2572 69.5035 24.0666C69.8847 23.5424 70.1468 22.9943 70.3136 22.4225C70.4804 21.8506 70.5757 21.3026 70.5757 20.8022V20.2542C70.5757 19.6108 70.4566 19.0866 70.2421 18.6339C70.0039 18.205 69.7179 17.8476 69.3843 17.5617C69.0269 17.2996 68.6695 17.0851 68.2645 16.966C67.8594 16.8469 67.4782 16.7754 67.1446 16.7754H57.6136C57.3992 16.7754 57.2086 16.823 57.0418 16.8945C56.875 16.966 56.7082 17.0613 56.589 17.2043C56.4699 17.3472 56.3508 17.4902 56.2793 17.657C56.2078 17.8238 56.1602 18.0144 56.1602 18.205V19.6108H58.9956H62.3553H67.1207C67.5258 19.6108 67.7164 19.8253 67.7164 20.2304V20.7784C67.7164 21.1596 67.6688 21.4932 67.5496 21.7791C67.4305 22.0651 67.2637 22.3272 67.0731 22.5416C66.8586 22.7561 66.5965 22.9228 66.3106 23.0182C66.0009 23.1373 65.6673 23.185 65.3099 23.185H59.0433H56.1602V31.0242C56.1602 31.2386 56.2078 31.4292 56.2793 31.596C56.3508 31.7628 56.4461 31.9296 56.589 32.0487C56.7082 32.1679 56.875 32.287 57.0418 32.3585C57.2086 32.43 57.3992 32.4776 57.6136 32.4776H68.4074C69.0508 32.4776 69.575 32.3585 70.0277 32.144C70.4566 31.9058 70.814 31.6198 71.0999 31.2862C71.362 30.9527 71.5765 30.5714 71.6956 30.1664C71.8147 29.7613 71.8862 29.3801 71.8862 29.0465V28.4985C71.8862 27.9504 71.8147 27.4262 71.6956 26.9735C71.5288 26.5208 71.362 26.0919 71.1476 25.7345ZM69.0031 29.0227C69.0031 29.1656 68.9793 29.2848 68.9316 29.3801C68.884 29.4754 68.8363 29.523 68.7887 29.5707C68.741 29.6183 68.6695 29.6183 68.598 29.6422C68.5266 29.6422 68.4551 29.6422 68.4074 29.6422H62.3791H59.0909V26.0681H66.5727C66.954 26.0681 67.2875 26.1157 67.5735 26.2348C67.8832 26.354 68.1215 26.5208 68.3359 26.7114C68.5504 26.9258 68.7172 27.1879 68.8363 27.4739C68.9555 27.7598 69.0031 28.0934 69.0031 28.4746V29.0227Z" fill="#142A5B"/>
</svg>
